X: 815
T: Redhaired Boy, The
B: jims roots
M:4/4
L:1/8
R: reel
Q: 1/4=100
K:Amix
V:1 
AG|"A"E2A2 ABcd|efec "D"d2cd|"A"e2A2 ABcA|"G"BGEF G2 AG|
"A"E2A2 ABcd|efec "D"d2cd|"A"eaab ag"E"ed|"A"c2A2A2:|
|:ef|"G"gfga gfef|gfec "D"d2cd|"A"edcB ABcA|"G"BGEF G2AG|
"A"E2AG A2 cd|efec "D"d2cd|"A"eaab ag"E"ed|"A"c2 A2 A2:|
% abcbook-tune_id 6298c2793d63463c35ff5a40


% abcbook-boost 0
% abcbook-tablature 
% abcbook-transpose 
% abcbook-lastupdated 1654178426799
% abcbook-soundfonts 
% abcbook-repeats 1


